**kern	**kern	**dynam
*part1	*part1	*part1
*staff2	*staff1	*
*I"Piano	*	*
*clefF4	*clefG2	*
*k[b-]	*k[b-]	*
=1	=1	=1
*	*^	*
(4CC	2.e 2.g	(4.c	.
8GG	.	.	.
4C	.	4.B-))	.
8CC)	.	.	.
*	*v	*v	*
=	=	=
4FF	(4A 4f	p
8r	8cc	.
4r	4a	.
(8c	[8f	.
=	=	=
4A	2.f]) 2.a	.
8F	.	.
4A	.	.
8c	.	.
=	=	=
4f)	4r	.
*	*clefF4	*
8r	8c	.
4r	8AL	.
*	*^	*
.	8F	[4F	.
(8C	[8AJ	.	.
*	*v	*v	*
=	=	=
8AAL	2.F] 2.A_	>
8FF	.	.
8DDJ	.	.
8FFL	.	.
8AA	.	.
8CJ)	.	.
=	=	=
(4F	4A]	.
8C	8r	]
4AA	(4.F 4.A	pp
8FF	.	.
=	=	=
*	*^	*
4CC	[4.c	2.E 2.G	.
8EE	.	.	.
4GG	4c]	.	.
8C)	8B-)	.	.
*	*v	*v	*
=||	=||	=||
*-	*-	*-
!!!system-decoration: {(s1,s2)}
